src/resources/assets/options.svg

<svg xmlns="http://www.w3.org/2000/svg" width="16" height="16"><path d="M 5.832031 9 C 6.859375 9 7.714844 9.710938 7.941406 10.664062 L 14.167969 10.667969 C 14.441406 10.667969 14.667969 10.890625 14.667969 11.167969 C 14.667969 11.417969 14.480469 11.628906 14.234375 11.664062 L 14.167969 11.667969 L 7.941406 11.667969 C 7.714844 12.621094 6.859375 13.332031 5.832031 13.332031 C 4.808594 13.332031 3.949219 12.621094 3.726562 11.667969 L 1.832031 11.667969 C 1.558594 11.667969 1.332031 11.441406 1.332031 11.167969 C 1.332031 10.914062 1.519531 10.703125 1.765625 10.671875 L 1.832031 10.667969 L 3.726562 10.667969 C 3.949219 9.710938 4.808594 9 5.832031 9 Z M 5.832031 10 C 5.324219 10 4.890625 10.328125 4.730469 10.78125 L 4.71875 10.824219 L 4.691406 10.921875 C 4.675781 11 4.667969 11.082031 4.667969 11.167969 C 4.667969 11.269531 4.679688 11.371094 4.707031 11.464844 L 4.730469 11.550781 L 4.75 11.597656 C 4.921875 12.027344 5.339844 12.332031 5.832031 12.332031 C 6.34375 12.332031 6.777344 12.007812 6.933594 11.550781 L 6.960938 11.464844 L 6.949219 11.503906 C 6.984375 11.398438 7 11.285156 7 11.167969 C 7 11.097656 6.992188 11.027344 6.980469 10.960938 L 6.960938 10.871094 L 6.949219 10.824219 L 6.917969 10.734375 C 6.746094 10.304688 6.324219 10 5.832031 10 Z M 10.167969 2.667969 C 11.191406 2.667969 12.050781 3.378906 12.273438 4.332031 L 14.167969 4.332031 C 14.441406 4.332031 14.667969 4.558594 14.667969 4.832031 C 14.667969 5.085938 14.480469 5.296875 14.234375 5.328125 L 14.167969 5.332031 L 12.273438 5.332031 C 12.050781 6.289062 11.191406 7 10.167969 7 C 9.140625 7 8.285156 6.289062 8.058594 5.332031 L 1.832031 5.332031 C 1.558594 5.332031 1.332031 5.109375 1.332031 4.832031 C 1.332031 4.582031 1.519531 4.371094 1.765625 4.339844 L 1.832031 4.332031 L 8.058594 4.332031 C 8.285156 3.378906 9.140625 2.667969 10.167969 2.667969 Z M 10.167969 3.667969 C 9.65625 3.667969 9.222656 3.992188 9.066406 4.449219 L 9.050781 4.488281 L 9.027344 4.589844 C 9.007812 4.667969 9 4.75 9 4.832031 C 9 4.9375 9.011719 5.035156 9.039062 5.132812 L 9.066406 5.21875 L 9.082031 5.265625 C 9.253906 5.695312 9.675781 6 10.167969 6 C 10.675781 6 11.109375 5.671875 11.269531 5.21875 L 11.292969 5.132812 L 11.285156 5.171875 C 11.316406 5.066406 11.332031 4.949219 11.332031 4.832031 C 11.332031 4.761719 11.328125 4.695312 11.316406 4.628906 L 11.296875 4.535156 L 11.28125 4.488281 L 11.25 4.402344 C 11.078125 3.972656 10.660156 3.667969 10.167969 3.667969 Z M 10.167969 3.667969" fill="#ddd"/></svg>

<svg xmlns="http://www.w3.org/2000/svg" width="16" height="16"><path d="M5.832 9c1.027 0 1.883.71 2.11 1.664l6.226.004a.501.501 0 01.066.996l-.066.004H7.941a2.167 2.167 0 01-4.214 0H1.832a.504.504 0 01-.5-.5c0-.254.188-.465.434-.496l.066-.004h1.895A2.162 2.162 0 015.832 9zm0 1c-.508 0-.941.328-1.102.781l-.011.043-.028.098a1.253 1.253 0 00.016.543l.023.086.02.047a1.165 1.165 0 002.184-.047l.027-.086-.012.039A1.06 1.06 0 007 11.168a1.2 1.2 0 00-.02-.207l-.02-.09-.01-.047-.032-.09A1.17 1.17 0 005.832 10zm4.336-7.332c1.023 0 1.883.71 2.105 1.664h1.895c.273 0 .5.227.5.5a.498.498 0 01-.434.496l-.066.004h-1.895a2.166 2.166 0 01-4.215 0H1.833a.497.497 0 01-.066-.992l.066-.008h6.227a2.167 2.167 0 012.109-1.664zm0 1a1.16 1.16 0 00-1.102.781l-.015.04-.024.1c-.02.079-.027.161-.027.243 0 .106.012.203.04.3l.026.087.016.047a1.17 1.17 0 002.188-.047l.023-.086-.008.039a1.21 1.21 0 00.047-.34c0-.07-.004-.137-.016-.203l-.02-.094-.015-.047-.031-.086a1.165 1.165 0 00-1.082-.734zm0 0" fill="#ddd"/></svg>
